!!!OTL: Der J&auml;ger und sein Lieb (3-46), S. 121f
!!!id: K1179
**kern
*clefG2
*k[]
*C:
{8e
=1
4g
8g
8g
8f
8e
=2
4f
8g
4e}
=3
{8g
=4
4cc
8g
8e
8d
8c
=5
4.g}
4r
=6
{8e
=7
8g
8g
8g
8g
8f
8e
=8
4f
8g
4e}
=9
{8g
=10
4cc
8g
8e
8d
8c
=11
4.g}
4r
=12
{8g
=13
4b
8b
8b
8a
8b
=14
4cc
16g
16g
4g}
=15
{8g
=16
4dd
8f
8f
8e
8a
=17
8a
8g
8g
8g}
8r
=18
{8c
=19
8c
8e
8e
8e
8g
8cc
=20
[2ee
8ee]}
=21
{8cc
=22
8dd
8dd
8dd
8b
8a
8b
=23
8cc
8b}
=24
{8a
8g
8g
8g
=25
8.ff
16b
8b
4cc}
==
*-
!!!minrhy: 16
!!!meters: 6/8 ]  ZZ[9
!!!cut: Der J&auml;ger und sein Lieb (3-46), S. 121f
!!!reg: Luxemburg
!!!trd: KINTZELE, Guillaume: An der Ucht, Bd. 3 Luxemburg 1928
!!!rhy1: X_  X__X_X_X_X_  X__X_X__   (x2)
!!!rhy2: X_  X__X_X_X_X_  X__.0_
!!!key: K1179  16  C 6/8 ]  ZZ[9
!!!mod: HEPTATONIK IONISCH]  AMBITUS[11
!!!kad: 353555+37+1
!!!akz: 5543_+135_5543_+135_77+15_+2465_13+3+3_+27+1_5+4+1_
!!!fot: 'a__b__av_b__as"bs'c__d__e__
!!!for: 'a__aw_b__aw_aw_aw_bw_bw_c__
!!!fok: 'M__~__M__~__^__~__/__\__^a_
!! PHRAS[AUFTAKTIG]
!!!fkt: Jagd-, Liebeslied
!!!bem: in der Quelle mit einer 2. Stimme versehen
!! KINTZELE
!! PR[31] 2K[4] 2G[18] 3K[7] 3G[0] 4A[4] 4Ü[0] 5A[2] 6K[0] 6G[0]
!! 7K[0] 7G[0] 8A[0] MEHR[0] SI[36] ABS[89] SR[22] SP[13]
!! ST[16] 2k[2] 2g[11] 3k[11] 3g[4] 4d[3] 4ü[0] 5d[0] 6k[0] 6g[0]
!! 7k[0] 7g[0] 8d[0] mehr[0] si[33] dm[+3] sr[13] sp[19]
!! 1F[11] 2F[46] 3F[28] 4F[2] LF[0] 2P[11] 3P[2] 4P[0] TRI[0] DF[6] AB[92]
!! TF[0] U3K[0] U3[0] U4[0] U4Ü[0] U5[0] U6K[0] U6[0] U7K[0] U7[0]
!! N1[2] N2K[0] N2[0] N3K[0] N3[9] N4[0] N4Ü[0] N5[49] N6K[0] N6[11]
!!!n7k: 0] N7[7] O1[16] O2K[0] O2[4] O3K[0] O3[2] HÖ[0
!!!RNB: symbol: &auml;      = a umlaut  (UTF-8: Å„)
